svgs/sharp-light/square-chevron-down.svg

<svg xmlns="http://www.w3.org/2000/svg" viewBox="0 0 448 512"><!--! Font Awesome Pro 6.6.0 by @fontawesome - https://fontawesome.com License - https://fontawesome.com/license (Commercial License) Copyright 2024 Fonticons, Inc. --><path d="M32 448L32 64l384 0 0 384L32 448zM0 480l32 0 384 0 32 0 0-32 0-384 0-32-32 0L32 32 0 32 0 64 0 448l0 32zM235.3 347.3l112-112L358.6 224 336 201.4l-11.3 11.3L224 313.4 123.3 212.7 112 201.4 89.4 224l11.3 11.3 112 112L224 358.6l11.3-11.3z"/></svg>

<svg xmlns="http://www.w3.org/2000/svg" viewBox="0 0 448 512"><!--! Font Awesome Pro 6.4.2 by @fontawesome - https://fontawesome.com License - https://fontawesome.com/license (Commercial License) Copyright 2023 Fonticons, Inc. --><path d="M32 448V64H416V448H32zM0 480H32 416h32V448 64 32H416 32 0V64 448v32zM235.3 347.3l112-112L358.6 224 336 201.4l-11.3 11.3L224 313.4 123.3 212.7 112 201.4 89.4 224l11.3 11.3 112 112L224 358.6l11.3-11.3z"/></svg>
